X:174
T:Peasant's Dance
M:6/8
L:1/8
B:Thompson's Compleat Collection of 200 Favourite Country Dances, vol. 1 (London, 1757)
Z:Transcribed and edited by Flynn Titford-Mock, 2007
Z:abc's:AK/Fiddler's Companion
K:G
B2c ded|c2B ABc|dBG E2A|FDF G3::B2G c2A|B2G A2g|dBG E2A|FDF G3:|
|:g2d gdB|g2B a2B|Bcd E2A|FDF G3::BdB (c2e)|(A2c) (B2d)|G2B AcA|FDF G3:|

